www/assets/icons/single_bed.svg

<svg xmlns="http://www.w3.org/2000/svg" width="24" height="24" viewBox="0 0 24 24" fill='currentColor'><path d="M20 12c0-1.1-.9-2-2-2V7c0-1.1-.9-2-2-2H8c-1.1 0-2 .9-2 2v3c-1.1 0-2 .9-2 2v5h1.33L6 19h1l.67-2h8.67l.66 2h1l.67-2H20zm-4-2h-3V7h3zM8 7h3v3H8zm-2 5h12v3H6z"/></svg>

<svg width="24" height="24" viewBox="0 0 24 24" xmlns="http://www.w3.org/2000/svg" fill='currentColor'><path d="M20 12C20 10.9 19.1 10 18 10V7C18 5.9 17.1 5 16 5H8C6.9 5 6 5.9 6 7V10C4.9 10 4 10.9 4 12V17H5.33L6 19H7L7.67 17H16.34L17 19H18L18.67 17H20V12ZM16 10H13V7H16V10ZM8 7H11V10H8V7ZM6 12H18V15H6V12Z"/></svg>
